packages/tokens/icons/unicorn/size32Px.svg

<svg viewBox="0 0 32 32" fill="none" xmlns="http://www.w3.org/2000/svg" width="1em" height="1em"><path d="M16.6063 17.9897C16.6063 19.5522 16.0857 21.1147 18.6885 23.7189C20.1265 25.1577 20.9852 26.6793 21.436 27.769C21.6773 28.3521 21.2231 28.9272 20.5921 28.9272L4.67378 28.9272C4.23581 28.9272 3.84621 28.6429 3.73242 28.22C3.47619 27.2676 3.29108 26.2861 3.18314 25.2814C3.10962 24.5971 3.0719 23.902 3.0719 23.1981C3.0719 12.5551 11.6951 3.92725 22.3324 3.92725C22.6817 3.92725 23.0288 3.93655 23.3735 3.95492L19.7296 7.60075L27.8246 15.7001C28.559 16.4349 28.7036 17.5732 28.1764 18.4683L27.9783 18.8045C27.7042 19.2699 27.2104 19.562 26.6705 19.5781V19.5781C26.2227 19.5915 25.7905 19.4132 25.4824 19.088L24.9351 18.5106L20.7707 17.4689" stroke="currentColor" stroke-linecap="round" stroke-linejoin="round"/><path d="M28.1548 3.25201C28.2583 3.17185 28.4043 3.18167 28.4964 3.27499C28.5884 3.36831 28.5981 3.5163 28.519 3.62113L23.1781 10.7L21.1705 8.66523L28.1548 3.25201Z" stroke="currentColor"/><path d="M14.3882 10.9272C13.1089 13.173 13.8681 16.0446 16.0839 17.3412C17.8021 18.3466 19.8916 18.1097 21.3399 16.9054" stroke="currentColor" stroke-linecap="round"/></svg>

<svg xmlns="http://www.w3.org/2000/svg" fill="none" viewBox="0 0 32 32" width="1em" height="1em"><path stroke="currentColor" stroke-linecap="round" stroke-linejoin="round" d="M16.606 17.99c0 1.562-.52 3.125 2.082 5.729 1.439 1.439 2.297 2.96 2.748 4.05.241.583-.213 1.158-.844 1.158H4.674a.967.967 0 0 1-.942-.707 19.202 19.202 0 0 1-.66-5.022c0-10.643 8.623-19.27 19.26-19.27.35 0 .697.009 1.041.027L19.73 7.6l8.095 8.1a2.28 2.28 0 0 1 .351 2.767l-.198.337a1.572 1.572 0 0 1-1.308.773v0a1.572 1.572 0 0 1-1.188-.49l-.547-.577-4.164-1.042"/><path stroke="currentColor" d="M28.155 3.252c.103-.08.25-.07.341.023a.266.266 0 0 1 .023.346l-5.34 7.079-2.008-2.035 6.984-5.413Z"/><path stroke="currentColor" stroke-linecap="round" d="M14.388 10.927c-1.28 2.246-.52 5.118 1.696 6.414a4.585 4.585 0 0 0 5.256-.436"/></svg>
